X: 1
T: Mrs Marshall of the Currochs
C:\251 George Meikle
B: George Meikle "Originally Mine" p.3
R: march
Z: 2010 John Chambers <jc:trillian.mit.edu>
M: 2/4
L: 1/16
K: A
A>B |:\
"A"c>BA>c "C#/A7"e2c>A | "D"d>cd>f "E7"a2g>f |\
"A"e>cA>c "F#m"e>ca>e | "Bm"c2B2 B2"E7"A>B |
"A"c>BA>c "C#/A7"e2c>A | "D"d>cd>f "E7"a2g>f |\
"A"e>fg>a "E7"e>cd>B |1 "A"c2A2 A2"E7"A>B :|2 "A"c2A2 A2"E7"c>d ||
|:\
"A"e>^de>f "C#/A7"e>cA>c | "D"d>cd>f "E7"a2g>f |\
"A"e>^de>f "C#/A7"e>cA>B | "Bm"c2B2 B2"E7"c>d |
"A"e>^de>f "C#/A7"e>cA>c | "D"d>cd>f "E7"a2g>f |\
"A"e>fg>a "A"e>c"E7"d>B |1 "A"c2A2 A2"E7"c>d :|2 "A"c2A2 A2"E7"A>B ||
|:\
"A"c>Bc>d "C#/A7"e2c>A | "D"d>cd>f "E7"a2g>f |\
"A"e>^de>f "C#/A7"e>cA>B | "Bm"c2B2 B2"E7"A>B |
"A"c>Bc>d "C#/A7"e2c>A | "D"d>cd>f "E7"a2g>f |\
"A"e>fg>a "A"e>c"E7"d>B |1 "A"c2A2 A2"E7"A>B :|2 "A"c2A2 A2"E7"c>d ||
|:\
"A"e>cA>c "C#/A7"e>cA>c | "D"d>ef>g "E7"a2g>f |\
"A"e>cA>c "C#/A7"e<ca>e | "Bm"c2B2 B2"E7"c>d |
"A"e>cA>c "C#/A7"e>cA>c | "D"d>ef>g "E7"a2g>f |\
"A"e>fg>a "A"e<c"E7"d>B |1 "A"c2A2 A2"E7"c>d :|2 "A"c2A2 A4 |]
%%begintext align
This is the very first tune composed by myself and dedicated to Chrissie Marshall who lived at the
Currochs Smiddy, which is about 2 miles west of my home town of Crieff. Chrissie ran a very popular
concert party which went round various venues in the Strathearn area. It was with this group that I
started to play regularly in public.
%%endtext

%%sep 1 1 500
%%sep 1 1 500

